src/main/resources/icons/RubyPsiApiIcons/icons/rails/actions/navigation/gutter/viewToAction.svg

<svg xmlns="http://www.w3.org/2000/svg" width="12" height="12" viewBox="0 0 12 12">
  <g fill="none" fill-rule="evenodd">
    <circle cx="4" cy="6" r="4" fill="#B99BF8" fill-opacity=".7"/>
    <path fill="#DB5860" d="M10,9 L12,9 L9.5,12 L7,9 L9,9 L9,0 L10,0 L10,9 Z" transform="matrix(1 0 0 -1 0 12)"/>
    <path fill="#231F20" fill-opacity=".7" d="M1.4,8 L3.58439716,3 L4.3929078,3 L6.57730496,8 L5.65531915,8 L5.15177305,6.80141844 L2.80425532,6.80141844 L2.29361702,8 L1.4,8 Z M3.12340426,6.02836879 L4.83262411,6.02836879 L3.97446809,4.04255319 L3.12340426,6.02836879 Z"/>
  </g>
</svg>

<svg xmlns="http://www.w3.org/2000/svg" width="12" height="12" viewBox="0 0 12 12"><rect id="frame" width="12" height="12" fill="none"/><g fill="none" fill-rule="evenodd"><circle cx="4" cy="6" r="4" fill="#B99BF8" fill-opacity=".7"/><path fill="#DB5860" d="M10 3h2L9.5 0 7 3h2v9h1V3z"/><path fill="#231F20" fill-opacity=".7" d="M1.4 8l2.184-5h.809l2.184 5h-.922l-.503-1.199H2.804L2.294 8H1.4zm1.723-1.972h1.71l-.859-1.985-.85 1.985z"/></g></svg>
